X: 23
T: QUADRILLE DE MALVILLE
M: 4/4
L: 1/8
Q:1/4=120
K:G 
|DE/2F/2GF/2G/2 AFDB|DE/2F/2GF/2G/2 A3/2 z/2 G3/2 z/2 |DE/2F/2GF/2G/2 AF
DB|DE/2F/2E3/2 z/2 A3/2 z/2 D3/2 z/2 |
B3/2 z/2 BA/2B/2 AGD3/2G/2|GFC3/2E/2 EDB,3/2 z/2 |B3/2 z/2 BA/2B/2 AGD3/
2D/2|DEFD BAG3/2 z/2 |
G3/2 z/2 DA A/2ABc5/2 z/2 |cBGd BA5/2 z/2 |Accc cBBA|GA3/2 z/2 d3/2 z/2 
G3/2 z/2 B|
AGDD/2D/2 DD/2D/2DG|FAGD/2D/2 DD/2D/2D3/2 z/2 |DG3/2 z/2 B3/2 z/2 d3/2c/
2B|AGBA FG3/2 z/2 |
G3/2 z/2 DD/2D/2 DDGA|BGDD/2D/2 DGFA|G3/2 z/2 DD/2D/2 DDGA|BGDD/2D/2 DGF
A|
G3/2 z/2 G3/2 z/2 A3/2 z/2 B5/2 z/2 |AB3/2 z/2 c3/2 z/2 B7/2 z/2 |d3/2 z
/2 dd d3/2 z/2 c3/2 z/2 |B3/2 z/2 A3/2 z/2 A3/2 z/2 G3/2 z/2 |
G3/2 z/2 A3/2 z/2 B5/2 z/2 A|B3/2 z/2 c3/2 z/2 B7/2 z/2 |d3/2 z/2 dd d3/
2 z/2 c3/2 z/2 |B3/2 z/2 A3/2 z/2 A3/2 z/2 G3/2 z/2 |
DG3/2 z/2 A3/2 z/2 B5/2 z/2 |ddcB cA5/2 z/2 |dcBA GF3/2 z/2 |E3/2 z/2 D5
/2 z/2 DG3/2 z/2 |
A3/2 z/2 B5/2 z/2 ddc|BcA5/2 z/2 dcB|AGfe dcB3/2 z/2 |A3/2 z/2 G3/2 z/2 
G3/2|
